packages/sources/icons/src/vitamix/image-line.svg

<svg width="16" height="16" viewBox="0 0 16 16" fill="none" xmlns="http://www.w3.org/2000/svg">
<path fill-rule="evenodd" clip-rule="evenodd" d="M3.20533 14.0133L3.21867 14H14.0053C14.3696 13.9971 14.6641 13.7023 14.6667 13.338V2.662C14.6667 2.29667 14.3707 2 14.0053 2H1.99467C1.63037 2.00291 1.33587 2.2977 1.33333 2.662V13.338C1.33333 13.7034 1.62931 13.9996 1.99467 14H3.19133L3.20533 14.0133ZM13.3333 3.33333V10L9.33333 6L2.66667 12.6667V3.33333H13.3333ZM13.3333 11.8853L9.33329 7.88533L4.55196 12.6667H13.3333V11.8853ZM4 6C4 6.73638 4.59695 7.33333 5.33333 7.33333C6.06971 7.33333 6.66667 6.73638 6.66667 6C6.66667 5.26362 6.06971 4.66667 5.33333 4.66667C4.59695 4.66667 4 5.26362 4 6Z" fill="#001018"/>
</svg>

<svg width="16" height="16" fill="none" xmlns="http://www.w3.org/2000/svg"><path fill-rule="evenodd" clip-rule="evenodd" d="M3.205 14.013 3.22 14h10.786a.667.667 0 0 0 .662-.662V2.662A.662.662 0 0 0 14.005 2H1.995a.667.667 0 0 0-.662.662v10.676c0 .365.296.662.662.662H3.19l.014.013zm10.128-10.68V10l-4-4-6.666 6.667V3.333h10.666zm0 8.552-4-4-4.781 4.782h8.781v-.782zM4 6a1.333 1.333 0 1 0 2.667 0A1.333 1.333 0 0 0 4 6z" fill="#001018"/></svg>
